X: 218
T:Wonder Hornpipe, The
M:4/4
L:1/8
R:hornpipe
Z:Seanchas
K:G
DEF|GdBG FcAF|(3GFG BG D2GF|EAAB cBAG|(3FED d^ced (3=cBA|!
GdBG FcAF|(3GFG BG D2GF|Eedc BADF|AGGF G2:||!
AG|FAd^c d2AG|FAd^c dfed|(3B^cd ef gece|d^cde d2 =c2|!
B3A ^GBe2|A3G FAd2|(3efg fe (3ded (3cBA|G2(3AGF G2:|!

